X: 8
T:Ay guindilla, guindilla
M:6/8
L:1/8
Q:1/4=92
C:Tradicional Len
O:Spain
A:KINGDOM OF LEON
R:Jota
K:C
|:eee ed^c|dB-A- AB^G|A2 ^G- GAB|
1cB-A- A2z:|2cB-A- Acc||
|:cBA AB^G|A(G/2F/2E) z B/2B/2B/2c/2|
ddc Bcc|1BB-A z cc:|
2(B{c}-B)-A- A3-|A z z z2 z||
